Obsidian-SemiLight/actions/16s/text-frame-link.svg

<svg viewBox="0 0 16 16" xmlns="http://www.w3.org/2000/svg"><path d="m2 2v12h5v-1h-4v-10h4v-1zm7 0v12h5v-12h-4zm1 1h3v10h-3zm-6 1v1h3v-1zm0 2v1h2v-1zm0 2v1h1v-1z" fill="#4d4d4d"/><path d="m6 8v4l2-2z" fill="#1d99f3"/></svg>

<svg xmlns="http://www.w3.org/2000/svg" viewBox="0 0 16 16">
  <defs id="defs3051">
    <style type="text/css" id="current-color-scheme">
      .ColorScheme-Text {
        color:#4d4d4d;
      }
      </style>
  </defs>
  <path 
     style="fill:currentColor;fill-opacity:1;stroke:none" 
     d="M 2 2 L 2 14 L 7 14 L 7 13 L 3 13 L 3 3 L 7 3 L 7 2 L 2 2 z M 9 2 L 9 14 L 14 14 L 14 2 L 10 2 L 9 2 z M 10 3 L 13 3 L 13 13 L 10 13 L 10 3 z M 4 4 L 4 5 L 7 5 L 7 4 L 4 4 z M 4 6 L 4 7 L 6 7 L 6 6 L 4 6 z M 4 8 L 4 9 L 5 9 L 5 8 L 4 8 z "
     class="ColorScheme-Text"/>
  <path
     style="fill:#1d99f3"
     d="m 6,8 0,4 2,-2 z" />
</svg>
